X:100
T:The Quiet Glen                                                                                    
N:Tommy Peoples                                                                                     
N:From Juergen Gier                                                                                 
L:1/8                                                                                               
M:6/8                                                                                               
K:GDor                                                                                              
B2c cBc|dBG FDF|(3BBB B cBc|dgf g2a|\                                                               
baf gdc| (3ddB G FDC|B,3 dcB|DGF G3:|                                                               
bag f2a|fg2 a3| bag afd|cAc d2a|\                                                                   
bag f(3aaf|gfd a2g|fdc AGF| DGG G3:|                                                                
F2G F3|DGA B2F|GFG BAB|cBc d3|\                                                                     
B2d cAF| fg2 afd|cAG FDC|DGF G3:|
